logo/buddy.svg

<svg viewBox="0 0 256 289" xmlns="http://www.w3.org/2000/svg" xmlns:xlink="http://www.w3.org/1999/xlink"><defs><mask id="a"><use fill="#FFF" xlink:href="#b"/></mask><path id="b" d="M116.612 3.64C92.292 17.63 35.7 50.38 11.38 64.377c-7 4.03-11.39 11.62-11.39 19.69v121.47c0 8.06 4.389 15.65 11.38 19.69 24.2 13.99 80.9 46.73 105.223 60.738 7.11 4.03 15.77 4.03 22.77 0 24.2-14 80.9-46.74 105.22-60.738 6.99-4.04 11.38-11.63 11.38-19.7V84.04c0-8.19-4.39-15.66-11.39-19.7 -24.2-14-80.904-46.739-105.23-60.737 -3.56-2.02-7.51-3.03-11.44-3.03 -3.93 0-7.85 1.008-11.35 3.02Z"/></defs><use fill="#00C9FF" xlink:href="#b"/><g mask="url(#a)"><g transform="translate(0-3)"><path fill="#1A67FD" d="M66.55 147.81L128 295.858 0 221.708Z"/><path fill="#0DA7FE" d="M66.55 147.81L0 73.43l-.001 148.28Z"/><path fill="#00C9FF" d="M66.55 147.81L128-.01l128 221.71Z"/><path fill="#05BBFF" d="M66.55 147.81L128-.01 0 73.429Z"/><path fill="#1A86FD" d="M128 295.85l128-74.15 -189.45-73.91Z"/><path fill="#05BBFF" d="M256 221.71l0-147.82L128-.02Z"/><path fill="#1A67FD" fill-opacity=".5" d="M155.04 135.35l16.25 16.25 -8.07 8.06 -8.19 8.18 -45.8 45.79 -16.26-16.26 45.79-45.79 -45.79-45.8 16.25-16.26Z"/><g fill="#D6FFFF"><path d="M171.29 144.25l-16.26-16.26 -62.042 62.04 16.25 16.25Z"/><path d="M109.25 82.32L93.11 98.57l62.04 62.04 16.25-16.26c-.12-.12-62.161-62.05-62.161-62.05"/></g></g></g></svg>

<?xml version="1.0" encoding="UTF-8"?>
<svg width="256px" height="289px" viewBox="0 0 256 289" version="1.1" xmlns="http://www.w3.org/2000/svg" xmlns:xlink="http://www.w3.org/1999/xlink" preserveAspectRatio="xMidYMid">
    <defs>
        <path d="M116.612,3.643 C92.293,17.641 35.707,50.383 11.389,64.38 C4.389,68.414 0,76.006 0,84.073 L0,205.549 C0,213.615 4.389,221.208 11.389,225.241 C35.589,239.239 92.293,271.98 116.612,285.979 C123.729,290.011 132.389,290.011 139.388,285.979 C163.589,271.98 220.293,239.239 244.611,225.241 C251.61,221.208 256,213.615 256,205.549 L256,84.073 C256,75.888 251.61,68.414 244.611,64.38 C220.411,50.383 163.707,17.641 139.388,3.643 C135.829,1.626 131.885,0.618 127.955,0.618 C124.026,0.618 120.111,1.626 116.612,3.643 Z" id="path-1"></path>
    </defs>
    <g>
        <mask id="mask-2" fill="white">
            <use xlink:href="#path-1"></use>
        </mask>
        <use fill="#00C9FF" fill-rule="nonzero" xlink:href="#path-1"></use>
        <g mask="url(#mask-2)" fill-rule="nonzero">
            <g transform="translate(0.000000, -3.000000)">
                <polygon fill="#1A67FD" points="66.5503 147.8109 128.0003 295.8589 0.0003 221.7159"></polygon>
                <polygon fill="#0DA7FE" points="66.5503 147.8109 0.0003 73.4309 0.0003 221.7159"></polygon>
                <polygon fill="#00C9FF" points="66.5503 147.8109 128.0003 -0.0001 256.0003 221.7159"></polygon>
                <polygon fill="#05BBFF" points="66.5503 147.8109 128.0003 -0.0001 0.0003 73.4309"></polygon>
                <polygon fill="#1A86FD" points="128 295.8593 256 221.7163 66.55 147.8113"></polygon>
                <polygon fill="#05BBFF" points="256 221.7162 256 73.9052 128 0.0002"></polygon>
                <polygon fill-opacity="0.5" fill="#1A67FD" points="155.0474 135.3549 171.2994 151.6069 163.2324 159.6739 155.0474 167.8589 109.2564 213.6499 93.0054 197.3969 138.7954 151.6069 93.0054 105.8159 109.2564 89.5639"></polygon>
                <polygon fill="#D6FFFF" points="171.2993 144.2518 155.0473 127.9998 93.0053 190.0428 109.2573 206.2948"></polygon>
                <path d="M109.2568,82.328 L93.1228,98.58 L155.1658,160.623 L171.4178,144.37 C171.2988,144.252 109.2568,82.328 109.2568,82.328" fill="#D6FFFF"></path>
            </g>
        </g>
    </g>
</svg>
